docs/images/icons/cosmetology.svg

<svg width="40" height="39" fill="none" xmlns="http://www.w3.org/2000/svg"><path d="M29.91 9.32 28.27 7.7l2-1.1 2.39 2.37-1.11 1.98-1.64-1.63Zm1.35 2.3-1.84-1.81-1.83-1.83-3.92.65 6.93 6.89.66-3.9ZM40 .01 38.62 0 31.6 6.95l.7.69L40 .01ZM19.38 27.1l-2.06-2.05c-.04-.03-.06-.07-.08-.11a.308.308 0 0 1-.03-.13c0-.05.01-.09.03-.13.02-.05.04-.08.08-.11.03-.04.07-.06.11-.08.04-.02.08-.03.13-.03.04 0 .09.01.13.03.04.02.08.04.12.08l2.06 2.04 1.34-1.32-.91-.91a.35.35 0 0 1-.1-.24c0-.09.04-.18.1-.24.07-.06.15-.1.25-.1.08 0 .17.04.24.1l.91.9 1.34-1.33-2.07-2.05c-.03-.03-.06-.06-.07-.11a.277.277 0 0 1-.03-.13c0-.04.01-.09.03-.13.01-.04.04-.08.07-.11.07-.06.15-.1.24-.1s.18.04.25.1l2.07 2.05 1.33-1.33-.91-.91a.345.345 0 0 1-.1-.23c0-.05.01-.09.03-.13.02-.05.04-.08.07-.11.07-.07.15-.1.24-.11.05 0 .1.01.14.03.04.02.08.04.11.08l.91.9 1.34-1.33-2.06-2.05a.4.4 0 0 1-.1-.18.313.313 0 0 1 .02-.19c.03-.07.07-.12.13-.16.05-.03.12-.05.19-.05.09 0 .17.03.24.09l2.07 2.06 1.34-1.33-.91-.9c-.03-.04-.06-.07-.08-.12a.507.507 0 0 1-.02-.13c0-.04.01-.09.02-.13a.444.444 0 0 1 .19-.19c.04-.01.09-.02.13-.02.05 0 .09.01.13.02.05.02.09.05.12.08l.91.9 1.34-1.32-7.4-7.34L7.4 24.31l7.4 7.34 4.58-4.55ZM3.93 33.96l1.14 1.14 4.03-4-1.14-1.14-4.03 4Zm5.9-3.11 4.74 4.71 1.6-1.58L5.05 22.95l-1.59 1.59 4.74 4.7 1.63 1.61ZM5.82 39l1.1-1.1-2.09-2.08h-.01L3.2 34.21v-.01l-2.1-2.07L0 33.22 5.82 39Z" fill="#FFF"/></svg>

<svg width="40.000000" height="39.000000" viewBox="0 0 40 39" fill="none" xmlns="http://www.w3.org/2000/svg" xmlns:xlink="http://www.w3.org/1999/xlink">
	<desc>
			Created with Pixso.
	</desc>
	<defs/>
	<path id="Vector" d="M29.91 9.32L28.27 7.7L30.27 6.6L32.66 8.97L31.55 10.95L29.91 9.32ZM31.26 11.62L29.42 9.81L27.59 7.98L23.67 8.63L30.6 15.52L31.26 11.62ZM40 0.01L38.62 0L31.6 6.95L32.3 7.64L40 0.01ZM19.38 27.1L17.32 25.05C17.28 25.02 17.26 24.98 17.24 24.94C17.22 24.9 17.21 24.85 17.21 24.81C17.21 24.76 17.22 24.72 17.24 24.68C17.26 24.63 17.28 24.6 17.32 24.57C17.35 24.53 17.39 24.51 17.43 24.49C17.47 24.47 17.51 24.46 17.56 24.46C17.6 24.46 17.65 24.47 17.69 24.49C17.73 24.51 17.77 24.53 17.81 24.57L19.87 26.61L21.21 25.29L20.3 24.38C20.24 24.32 20.2 24.23 20.2 24.14C20.2 24.05 20.24 23.96 20.3 23.9C20.37 23.84 20.45 23.8 20.55 23.8C20.63 23.8 20.72 23.84 20.79 23.9L21.7 24.8L23.04 23.47L20.97 21.42C20.94 21.39 20.91 21.36 20.9 21.31C20.88 21.27 20.87 21.23 20.87 21.18C20.87 21.14 20.88 21.09 20.9 21.05C20.91 21.01 20.94 20.97 20.97 20.94C21.04 20.88 21.12 20.84 21.21 20.84C21.3 20.84 21.39 20.88 21.46 20.94L23.53 22.99L24.86 21.66L23.95 20.75C23.92 20.72 23.9 20.69 23.88 20.65C23.86 20.6 23.85 20.56 23.85 20.52C23.85 20.47 23.86 20.43 23.88 20.39C23.9 20.34 23.92 20.31 23.95 20.28C24.02 20.21 24.1 20.18 24.19 20.17C24.24 20.17 24.29 20.18 24.33 20.2C24.37 20.22 24.41 20.24 24.44 20.28L25.35 21.18L26.69 19.85L24.63 17.8C24.58 17.75 24.55 17.69 24.53 17.62C24.52 17.56 24.52 17.49 24.55 17.43C24.58 17.36 24.62 17.31 24.68 17.27C24.73 17.24 24.8 17.22 24.87 17.22C24.96 17.22 25.04 17.25 25.11 17.31L27.18 19.37L28.52 18.04L27.61 17.14C27.58 17.1 27.55 17.07 27.53 17.02C27.52 16.98 27.51 16.94 27.51 16.89C27.51 16.85 27.52 16.8 27.53 16.76C27.55 16.72 27.58 16.68 27.61 16.65C27.64 16.62 27.68 16.59 27.72 16.57C27.76 16.56 27.81 16.55 27.85 16.55C27.9 16.55 27.94 16.56 27.98 16.57C28.03 16.59 28.07 16.62 28.1 16.65L29.01 17.55L30.35 16.23L22.95 8.89L7.4 24.31L14.8 31.65L19.38 27.1ZM3.93 33.96L5.07 35.1L9.1 31.1L7.96 29.96L3.93 33.96ZM9.83 30.85L14.57 35.56L16.17 33.98L5.05 22.95L3.46 24.54L8.2 29.24L9.83 30.85ZM5.82 39L6.92 37.9L4.83 35.82L4.82 35.82L3.2 34.21L3.2 34.2L1.1 32.13L0 33.22L5.82 39Z" fill="#FFFFFF" fill-opacity="1.000000" fill-rule="nonzero"/>
</svg>
